icon-themes/sifr_svg/cmd/sc_symbolshapes.left-brace.svg

<svg viewBox="0 0 16 16" xmlns="http://www.w3.org/2000/svg"><path d="m11 1v2h-2a1 1 0 0 0 -1 1v2a3 3 0 0 1 -1.3457031 2.5 3 3 0 0 1 1.3457031 2.5v2a1 1 0 0 0 1 1h2v2h-2a3 3 0 0 1 -3-3v-2a1 1 0 0 0 -1-1h-1v-3h1a1 1 0 0 0 1-1v-2a3 3 0 0 1 3-3z" fill="#555753"/></svg>

<svg xmlns="http://www.w3.org/2000/svg" viewBox="0 0 16 16">
  <path
     style="fill:#555753"
     d="M 11,1 V 3 H 9 A 1,1 0 0 0 8,4 V 6 A 3,3 0 0 1 6.6542969,8.5 3,3 0 0 1 8,11 v 2 a 1,1 0 0 0 1,1 h 2 v 2 H 9 A 3,3 0 0 1 6,13 V 11 A 1,1 0 0 0 5,10 H 4 V 7 H 5 A 1,1 0 0 0 6,6 V 4 A 3,3 0 0 1 9,1 Z"
     />
</svg>
